X:1506
T:Lord Rosslyn's Fancy
P:Lord Rosslyn's Fancy
C:Traditional?
R:Jig (8x32)
B:RSCDS 15-6
Z:Anselm Lingnau <anselm@strathspey.org>
M:6/8
L:1/8
K:Bb
"Bb"FGB "Dm/A"d2 B|"Eb/G"c2 B "Bb/F"d2 B|\
"F7/A"FGA "Eb/G"B2 g|"Bb/D"fdB "F7"c3|
"Bb"FGB "Dm/A"d2 B|"Eb/G"c2 B "Bb/F"d2 B|\
"F7/A"FGA "Eb/G"B2 g|"Bb/D"fdB "F7"[c2E2]||
(3f/g/a/|"Bb"b2 B "Dm/A"a2 B|"Eb/G"g2 B "Bb/F"fdB|\
    "Eb"G2 B "Bb/D"F2 "Eb"g|"Bb"fdB "F7"[c2E2] (3f/g/a/|
"Bb"b2 B "Dm/A"a2 B|"Eb/G"g2 B "Bb/F"fdB|"Eb"BAG "Bb/D"FDF|"Eb"G<BB "Bb"B2 z|]
